assets/img/braze_icons/star-02.svg

<svg fill="none" height="24" viewBox="0 0 24 24" width="24" xmlns="http://www.w3.org/2000/svg"><path d="m12.6113 1.63359c-.389-.17356-.8335-.17356-1.2225 0-.3266.14577-.5208.39514-.6258.54433-.1024.14567-.2081.32956-.3073.50232l-1.91368 3.33018-3.84087-.00777c-.19923-.00046-.41128-.00094-.58867.01497-.18169.0163-.49473.05976-.78431.2698-.34481.25009-.56703.63499-.61121 1.05865-.03711.3558.08177.64863.1585.81413.07491.16157.18136.34498.28136.51728l1.92718 3.32242-1.92718 3.3224c-.1.1723-.20645.3557-.28136.5173-.07673.1655-.19561.4583-.1585.8141.04418.4237.2664.8086.61121 1.0587.28958.21.60262.2535.78431.2698.17737.0159.38939.0154.5886.015l3.84094-.0078 1.91368 3.3301c.0992.1728.2049.3567.3073.5024.105.1492.2992.3985.6258.5443.389.1736.8335.1736 1.2225 0 .3267-.1458.5208-.3951.6258-.5443.1024-.1457.2081-.3296.3073-.5024l1.9137-3.3301 3.8409.0078c.1992.0004.4113.0009.5886-.015.1817-.0163.4947-.0598.7843-.2698.3448-.2501.5671-.635.6112-1.0587.0371-.3558-.0817-.6486-.1585-.8141-.0749-.1616-.1813-.345-.2813-.5173l-1.9272-3.3224 1.9272-3.32244c.1-.17228.2064-.35571.2813-.51726.0768-.1655.1956-.45832.1585-.81413-.0441-.42366-.2664-.80856-.6112-1.05865-.2896-.21003-.6026-.2535-.7843-.2698-.1774-.01591-.3894-.01543-.5886-.01497l-3.8409.00777-1.9137-3.33015c-.0992-.17276-.2049-.35668-.3073-.50235-.105-.14919-.2991-.39856-.6258-.54433z" fill="#801ed7"/></svg>

<svg width="24" height="24" viewBox="0 0 24 24" fill="none" xmlns="http://www.w3.org/2000/svg">
<path d="M12.6113 1.63359C12.2223 1.46003 11.7778 1.46003 11.3888 1.63359C11.0622 1.77936 10.868 2.02873 10.763 2.17792C10.6606 2.32359 10.5549 2.50748 10.4557 2.68024L8.54202 6.01042L4.70115 6.00265C4.50192 6.00219 4.28987 6.00171 4.11248 6.01762C3.93079 6.03392 3.61775 6.07738 3.32817 6.28742C2.98336 6.53751 2.76114 6.92241 2.71696 7.34607C2.67985 7.70187 2.79873 7.9947 2.87546 8.1602C2.95037 8.32177 3.05682 8.50518 3.15682 8.67748L5.084 11.9999L3.15682 15.3223C3.05682 15.4946 2.95037 15.678 2.87546 15.8396C2.79873 16.0051 2.67985 16.2979 2.71696 16.6537C2.76114 17.0774 2.98336 17.4623 3.32817 17.7124C3.61775 17.9224 3.93079 17.9659 4.11248 17.9822C4.28985 17.9981 4.50187 17.9976 4.70108 17.9972L8.54202 17.9894L10.4557 21.3195C10.5549 21.4923 10.6606 21.6762 10.763 21.8219C10.868 21.9711 11.0622 22.2204 11.3888 22.3662C11.7778 22.5398 12.2223 22.5398 12.6113 22.3662C12.938 22.2204 13.1321 21.9711 13.2371 21.8219C13.3395 21.6762 13.4452 21.4923 13.5444 21.3195L15.4581 17.9894L19.299 17.9972C19.4982 17.9976 19.7103 17.9981 19.8876 17.9822C20.0693 17.9659 20.3823 17.9224 20.6719 17.7124C21.0167 17.4623 21.239 17.0774 21.2831 16.6537C21.3202 16.2979 21.2014 16.0051 21.1246 15.8396C21.0497 15.678 20.9433 15.4946 20.8433 15.3223L18.9161 11.9999L20.8433 8.67746C20.9433 8.50518 21.0497 8.32175 21.1246 8.1602C21.2014 7.9947 21.3202 7.70188 21.2831 7.34607C21.239 6.92241 21.0167 6.53751 20.6719 6.28742C20.3823 6.07739 20.0693 6.03392 19.8876 6.01762C19.7102 6.00171 19.4982 6.00219 19.299 6.00265L15.4581 6.01042L13.5444 2.68027C13.4452 2.50751 13.3395 2.32359 13.2371 2.17792C13.1321 2.02873 12.938 1.77936 12.6113 1.63359Z" fill="#801ED7"/>
</svg>
